X:1
T:The Gifts of God
T:The Gifts of God
T:Edwin Othello Excell
T:Jessie  Brown Pounds, 1910
T:Public Domain Courtesy of the Cyber Hymnal™
C:Edwin Othello Excell
Z:Public Domain
Z:Courtesy of the Cyber Hymnal™
%%score ( 1 2 ) 3
L:1/8
Q:1/4=102
M:4/4
K:Ab
V:1 treble 
V:2 treble 
V:3 bass 
V:1
 [CE]2 | [CE]3 [CA] [Ec]>[DB] [CA]>[DF] | [CE]6 [EA]2 | [EB]3 [EA] [Ec]2 [EB]2 | [EB]6 [DE]2 | %5
w: 1.~His|gifts are great- er than my|dreams, The|gifts of God to|me; As|
w: 2.~I|ask a part, He gives the|whole— Him-|self, and all be-|side; His|
w: 3.~“His|ways are ways of plea- sant-|ness, His|paths are paths of|peace”; His|
w: 4.~With-|in my heart He shall have|place To|rule and reign su-|preme; My|
 [CE]3 [CA] [Ec]>[DB] [CA]>[Ec] | [Ge]2 [Fd]2 [Fc]2 [FB]2 | [EA]3 [Ec] [Ec]2 [DB]2 | [CA]6 || %9
w: count- less as the sun- set’s|gold- en beams, As|bound- less as the|sea.|
w: lov- ing- kind- ness o- ver-|flows my soul, In-|rush- ing as the|tide.|
w: hand is ev- er reach- ing|out to bless; He|bids each sor- row|cease.|
w: voice will ev- er praise Him|for the grace Of|which I ne’er could|dream.|
"^Refrain" [CE]2 | [Ec]3 [B,G] [DB]<[CA] [CE]>C | E6 [DE]2 | [Ed]3 [Ec] [EB]2 E2 | %13
w: ||||
w: His|gifts are great- er than my|dreams, The|gifts of Him who|
w: ||||
w: ||||
 [EA]2 [EB]2 [Ec]2 [CE]2 | [Ee]3 [Ed] [Ec]>[EB] [EA]>[Ec] | [Ge]2 [Fd]2 [Fc]2 [FB]2 | %16
w: |||
w: set me free; And|more and more a- bun- dant|dai- ly seems The|
w: |||
w: |||
 [EA]3 [Ec] [Ec]2 [DB]2 | [CA]6 |] %18
w: ||
w: grace of God to|me.|
w: ||
w: ||
V:2
 x2 | x8 | x8 | x8 | x8 | x8 | x8 | x8 | x6 || x2 | x15/2 C/ | (D<DD>D D2) x2 | x6 E2 | x8 | x8 | %15
 x8 | x8 | x6 |] %18
V:3
 [A,,A,]2 | [A,,A,]3 [A,,E,] [A,,E,]>[A,,E,] [A,,A,]>[A,,A,] | [A,,A,]6 [C,A,]2 | %3
w: ~|~ ~ ~ ~ ~ ~|~ ~|
 [E,D]3 [E,C] [E,A,]2 [E,G,]2 | [E,G,]6 [E,G,]2 | %5
w: ~ ~ ~ ~|~ ~|
 [A,,A,]3 [A,,E,] [A,,E,]>[A,,E,] [A,,A,]>[A,,A,] | [D,A,]2 [D,A,]2 [D,E]2 [D,D]2 | %7
w: ~ ~ ~ ~ ~ ~|~ ~ ~ ~|
 [E,C]3 [E,A,] [E,A,]2 [E,G,]2 | [A,,A,]6 || [A,,A,]2 | %10
w: ~ ~ ~ ~|~|His|
 [A,,E,]3 [A,,E,] [A,,E,]<[A,,A,] [A,,A,]>[A,,A,] | [B,,G,]<[B,,G,] [E,G,]>[E,G,] [G,B,]2 [E,G,]2 | %12
w: gifts are great- er, they are|great- er than my dreams *|
 [E,B,]3 [E,A,] [E,G,]2 [D,G,]2 | [C,A,]2 [B,,G,]2 [A,,A,]2 [A,,A,]2 | %14
w: ||
 [A,,C]3 [A,,B,] [A,,A,]>[A,,D] [A,,C]>[A,,A,] | [D,A,]2 [D,A,]2 [D,E]2 [D,D]2 | %16
w: ||
 [E,C]3 [E,A,] [E,A,]2 [E,G,]2 | [A,,A,]6 |] %18
w: ||

